X:315
T:Effingham Junction
C:Mollie Koenigsberger
N:Second tune for "All the way to Beckenham"
L:1/8
M:2/2
R:Reel
S:Colin Hume's website,  colinhume.com  - chords can also be printed below the stave.
Q:1/2=112
K:D
P:A
|: "D"f4 f4 | fedB AFED | "A"CEAE CEAE | CEAE Acde |\
"D"f2dd d2ee | fedB AFED | "A"CEAE CABc | "D"dedc d4 :|
P:B
|: "D"F2DD D2EE | F2AA B2A2 | "A"c4 c4 | cecA BAFE |\
"D"F2DD D2EE | F2AA B2A2 | "A"c2cc cABc | "D"dedc d4 :|

